X:1
T:Rock of Ages
M:3/4
L:1/8
K:Bb
 F3/2 G/2| F2 D2 B3/2 G/2| F4 Bc| d3 cB A| B4 A3/2 B/2| c3 cA F| B4 A3/2 B/2|\
 c3 cA F| B4 F3/2 G/2| F2 D2 B3/2 G/2| F4 Bc| d3 cB A| B4||
